public/art/floors/dirt-1.svg

<svg xmlns="http://www.w3.org/2000/svg" width="32" height="32" shape-rendering="crispEdges" viewBox="0 -0.5 16 16"><path stroke="#b27c7c" d="M0 0h16M0 1h1m2 0h1m1 0h4m2 0h1m1 0h3M0 2h1m2 0h6m2 0h5M0 3h6m1 0h7m1 0h1M0 4h16M0 5h16M0 6h2m1 0h3m1 0h3m1 0h3m1 0h1M0 7h16M0 8h16M0 9h1m2 0h1m1 0h4m2 0h1m1 0h3M0 10h1m2 0h6m2 0h5M0 11h6m1 0h7m1 0h1M0 12h16M0 13h16M0 14h2m1 0h3m1 0h3m1 0h3m1 0h1M0 15h16"/><path stroke="#c18787" d="M1 1h2m6 0h2M1 2h2m6 0h2M6 6h1m7 0h1M1 9h2m6 0h2M1 10h2m6 0h2m-5 4h1m7 0h1"/><path stroke="#b26b6b" d="M4 1h1m7 0h1M6 3h1m7 0h1M2 6h1m7 0h1M4 9h1m7 0h1m-7 2h1m7 0h1M2 14h1m7 0h1"/></svg>

<svg xmlns="http://www.w3.org/2000/svg" width="32" height="32" viewBox="0 -0.5 16 16" shape-rendering="crispEdges">
<path stroke="#b27c7c" d="M0 0h16M0 1h1M3 1h1M5 1h4M11 1h1M13 1h3M0 2h1M3 2h6M11 2h5M0 3h6M7 3h7M15 3h1M0 4h16M0 5h16M0 6h2M3 6h3M7 6h3M11 6h3M15 6h1M0 7h16M0 8h16M0 9h1M3 9h1M5 9h4M11 9h1M13 9h3M0 10h1M3 10h6M11 10h5M0 11h6M7 11h7M15 11h1M0 12h16M0 13h16M0 14h2M3 14h3M7 14h3M11 14h3M15 14h1M0 15h16" />
<path stroke="#c18787" d="M1 1h2M9 1h2M1 2h2M9 2h2M6 6h1M14 6h1M1 9h2M9 9h2M1 10h2M9 10h2M6 14h1M14 14h1" />
<path stroke="#b26b6b" d="M4 1h1M12 1h1M6 3h1M14 3h1M2 6h1M10 6h1M4 9h1M12 9h1M6 11h1M14 11h1M2 14h1M10 14h1" />
</svg>
